resources/icon/server/clickhouse-active.svg

<svg xmlns="http://www.w3.org/2000/svg" height="8" width="9" style=""><rect id="backgroundrect" width="100%" height="100%" x="0" y="0" fill="none" stroke="none"/><g class="currentLayer" style=""><title>Layer 1</title><path d="m0 7h1v1h-1z" fill="#f00" id="svg_1"/><path d="m0 0h1v7h-1zm2 0h1v8h-1zm2 0h1v8h-1zm2 0h1v8h-1zm2 3.25h1v1.5h-1z" fill="#fc0" id="svg_2"/><path fill="#1aeb1a" fill-opacity="1" stroke="#222222" stroke-opacity="1" stroke-width="0" stroke-dasharray="none" stroke-linejoin="round" stroke-linecap="butt" stroke-dashoffset="" fill-rule="nonzero" opacity="1" marker-start="" marker-mid="" marker-end="" d="M5.790123943437855,6.771604886013843 C5.790123943437855,6.195245829397398 6.25697477929718,5.728394993538074 6.833333835913626,5.728394993538074 C7.409692892530074,5.728394993538074 7.876543728389393,6.195245829397398 7.876543728389393,6.771604886013843 C7.876543728389393,7.347963942630289 7.409692892530074,7.8148147784896125 6.833333835913626,7.8148147784896125 C6.25697477929718,7.8148147784896125 5.790123943437855,7.347963942630289 5.790123943437855,6.771604886013843 z" id="svg_6" class=""/></g></svg>

<svg xmlns="http://www.w3.org/2000/svg" xmlns:xlink="http://www.w3.org/1999/xlink" width="150" height="150" version="1.1" style="">
	<rect id="backgroundrect" width="100%" height="100%" x="0" y="0" fill="none" stroke="none" />


	<g class="currentLayer" style="">
		<title>Layer 1</title>
		<g transform="matrix(17 0 0 17 0.1250248 -0)">
			<path d="M0 7L1 7L1 8L0 8L0 7z" stroke="none" fill="#FF0000" fill-rule="nonzero" />
			<path d="M0 0L1 0L1 7L0 7L0 0zM2 0L3 0L3 8L2 8zM4 0L5 0L5 8L4 8zM6 0L7 0L7 8L6 8zM8 3.25L9 3.25L9 4.75L8 4.75z" stroke="none" fill="#FFCC00" fill-rule="nonzero" />
		</g>
		<path fill="#0bd50b" fill-opacity="1" stroke="#222222" stroke-opacity="1" stroke-width="2" stroke-dasharray="none" stroke-linejoin="round" stroke-linecap="butt" stroke-dashoffset="" fill-rule="nonzero" opacity="1" marker-start="" marker-mid="" marker-end="" d="M108.58201086521149,127.43121719360352 C108.58201086521149,118.315195094156 116.18974567184132,110.93121719360352 125.58201086521149,110.93121719360352 C134.97427605858167,110.93121719360352 142.5820108652115,118.315195094156 142.5820108652115,127.43121719360352 C142.5820108652115,136.54723929305104 134.97427605858167,143.93121719360352 125.58201086521149,143.93121719360352 C116.18974567184132,143.93121719360352 108.58201086521149,136.54723929305104 108.58201086521149,127.43121719360352 z" id="svg_5" class="" />
	</g>
</svg>
